X:142
T:Annaghbeg Polka, The
R:polka
S:juliaclifford.eu
Z:id:hn-polka-142
M:2/4
L:1/8
K:D
A/B/A/G/ Fd | A/B/A/G/ Fd | ce Bc | BA F2 |
A/B/A/G/ Fd | A/B/A/G/ Fd | ce Bc | ed d2 :|
|: fg/f/ ed | fe e2 | dc Bc | BA FA |
f2 ed | fe e2 | dc Bc | ed d2 :|

